src/assets/images/architec.svg

<svg width="74" height="79" viewBox="0 0 74 79" fill="none" xmlns="http://www.w3.org/2000/svg">
<g filter="url(#filter0_d_168_40)">
<path d="M65.3789 14.1641C66.9693 13.5972 68.1455 13.4029 68.8369 13.543C69.1607 13.6086 69.319 13.7354 69.4004 13.876C69.4894 14.0297 69.5454 14.3029 69.4502 14.7744C65.8242 32.7363 65.8242 51.2637 69.4502 69.2256C69.5454 69.6971 69.4894 69.9703 69.4004 70.124C69.319 70.2646 69.1607 70.3914 68.8369 70.457C68.1455 70.5971 66.9693 70.4028 65.3789 69.8359C62.2438 68.7184 57.8634 66.2911 53.4053 63.1797C48.9515 60.0712 44.4532 56.3028 41.0752 52.5254C39.3863 50.6368 37.9869 48.7562 37.0117 46.9639C36.0344 45.1674 35.5 43.4905 35.5 42C35.5 40.5095 36.0344 38.8325 37.0117 37.0361C37.9869 35.2438 39.3863 33.3632 41.0752 31.4746C44.4532 27.6972 48.9515 23.9288 53.4053 20.8203C57.8634 17.7089 62.2438 15.2816 65.3789 14.1641Z" stroke="#B2282F"/>
<path d="M8.62109 56.8359C7.03068 57.4028 5.85452 57.5971 5.16309 57.457C4.83933 57.3914 4.68102 57.2646 4.59961 57.124C4.51065 56.9703 4.45461 56.6971 4.5498 56.2256C8.17582 38.2637 8.17582 19.7363 4.5498 1.77441C4.45461 1.30287 4.51065 1.02966 4.59961 0.875977C4.68102 0.735352 4.83933 0.608639 5.16309 0.542969C5.85452 0.402866 7.03068 0.597208 8.62109 1.16406C11.7562 2.28157 16.1366 4.70889 20.5947 7.82031C25.0485 10.9288 29.5468 14.6972 32.9248 18.4746C34.6137 20.3632 36.0131 22.2438 36.9883 24.0361C37.9656 25.8326 38.5 27.5095 38.5 29C38.5 30.4905 37.9656 32.1675 36.9883 33.9639C36.0131 35.7562 34.6137 37.6368 32.9248 39.5254C29.5468 43.3028 25.0485 47.0712 20.5947 50.1797C16.1366 53.2911 11.7562 55.7184 8.62109 56.8359Z" stroke="#B2282F"/>
</g>
<defs>
<filter id="filter0_d_168_40" x="0" y="0" width="74" height="79" filterUnits="userSpaceOnUse" color-interpolation-filters="sRGB">
<feFlood flood-opacity="0" result="BackgroundImageFix"/>
<feColorMatrix in="SourceAlpha" type="matrix" values="0 0 0 0 0 0 0 0 0 0 0 0 0 0 0 0 0 0 127 0" result="hardAlpha"/>
<feOffset dy="4"/>
<feGaussianBlur stdDeviation="2"/>
<feComposite in2="hardAlpha" operator="out"/>
<feColorMatrix type="matrix" values="0 0 0 0 0 0 0 0 0 0 0 0 0 0 0 0 0 0 0.25 0"/>
<feBlend mode="normal" in2="BackgroundImageFix" result="effect1_dropShadow_168_40"/>
<feBlend mode="normal" in="SourceGraphic" in2="effect1_dropShadow_168_40" result="shape"/>
</filter>
</defs>
</svg>

<svg xmlns="http://www.w3.org/2000/svg" width="74" height="79" fill="none"><g stroke="#B2282F" filter="url(#a)"><path d="M65.379 14.164c1.59-.567 2.766-.761 3.458-.621.324.066.482.192.563.333.09.154.145.427.05.898a137.6 137.6 0 0 0 0 54.452c.095.471.04.744-.05.898-.081.14-.24.267-.563.333-.692.14-1.868-.054-3.458-.621-3.135-1.118-7.516-3.545-11.974-6.656-4.453-3.109-8.952-6.877-12.33-10.655-1.689-1.888-3.088-3.769-4.063-5.561C36.034 45.167 35.5 43.49 35.5 42s.534-3.167 1.512-4.964c.975-1.792 2.374-3.673 4.063-5.561 3.378-3.778 7.877-7.546 12.33-10.655 4.458-3.111 8.839-5.538 11.974-6.656ZM8.621 56.836c-1.59.567-2.766.761-3.458.621-.324-.066-.482-.192-.563-.333-.09-.154-.145-.427-.05-.898a137.6 137.6 0 0 0 0-54.452c-.095-.471-.04-.744.05-.898.081-.14.24-.267.563-.333.692-.14 1.868.054 3.458.621 3.135 1.118 7.516 3.545 11.974 6.656 4.454 3.109 8.952 6.877 12.33 10.655 1.689 1.888 3.088 3.769 4.063 5.561C37.966 25.833 38.5 27.51 38.5 29c0 1.49-.534 3.167-1.512 4.964-.975 1.792-2.374 3.673-4.063 5.561-3.378 3.778-7.876 7.546-12.33 10.655-4.458 3.111-8.839 5.538-11.974 6.656Z"/></g><defs><filter id="a" width="74" height="79" x="0" y="0" color-interpolation-filters="sRGB" filterUnits="userSpaceOnUse"><feFlood flood-opacity="0" result="BackgroundImageFix"/><feColorMatrix in="SourceAlpha" result="hardAlpha" values="0 0 0 0 0 0 0 0 0 0 0 0 0 0 0 0 0 0 127 0"/><feOffset dy="4"/><feGaussianBlur stdDeviation="2"/><feComposite in2="hardAlpha" operator="out"/><feColorMatrix values="0 0 0 0 0 0 0 0 0 0 0 0 0 0 0 0 0 0 0.25 0"/><feBlend in2="BackgroundImageFix" result="effect1_dropShadow_168_40"/><feBlend in="SourceGraphic" in2="effect1_dropShadow_168_40" result="shape"/></filter></defs></svg>
